!!!OTL: Gesellenlied (3-37), S. 115
!!!id: P1009
**kern
*clefG2
*k[f#]
*G:
{4d
=1
4.g
8a
4b
4a
=2
4g
4f#
4g}
=3
{8a
8b
=4
4cc
4b
4a
4g
=5
2a}
4r
=6
{8g
8a
=7
4b
4b
4b
4a
=8
4.b
8cc
4dd}
4r
=9
{4ee
4dd
4cc
4b
=10
4.a
8g
4a}
=11
{8dd
8cc
=12
4b
4b
8a
8g
4a
=13
2g}
=14
{2a
=15
4b
8dd
8cc
4b
4a
=16
2g}
=17
{2a
=18
4b
4dd
8dd
8cc
4cc
=19
2b}
4r
==
*-
!!!minrhy: 8
!!!meters: 4/4 ]  ZZ[7
!!!cut: Gesellenlied (3-37), S. 115
!!!reg: Lothringen
!!!trd: PINCK, Louis: Verklingende Weisen, Bd3, Metz 1933
!!!rhy1: X_  X_.XX_X_  X_X_X_
!!!rhy2: XX  X_X_X_X_  X__0_
!!!key: P1009  08  G 4/4 ]  ZZ[7
!!!mod: HEPTATONIK IONISCH]  AMBITUS[9
!!!kad: 1252113
!!!akz: 1311_422_3335_6422_321_2331_2353_
!!!fot: 'a__b__c__as"d__e__f__
!!!for: 'a__b__bw_bw_c__d__cv_
!!!fok: '^a_^__/__\__\__^d_^a_
!! PHRAS[VORWIEGEND AUFTAKTIG]
!!!fkt: Arbeit, Liebe
!! LOTH VKL
!! PR[12] 2K[12] 2G[19] 3K[5] 3G[5] 4A[2] 4Ü[0] 5A[2] 6K[0] 6G[0]
!! 7K[0] 7G[0] 8A[0] MEHR[0] SI[45] ABS[42] SR[31] SP[14]
!! ST[10] 2k[10] 2g[19] 3k[7] 3g[5] 4d[2] 4ü[0] 5d[0] 6k[0] 6g[0]
!! 7k[0] 7g[0] 8d[0] mehr[0] si[43] dm[+2] sr[29] sp[14]
!! 1F[2] 2F[54] 3F[33] 4F[7] LF[0] 2P[2] 3P[2] 4P[0] TRI[0] DF[6] AB[46]
!! TF[0] U3K[0] U3[0] U4[0] U4Ü[0] U5[2] U6K[0] U6[0] U7K[0] U7[0]
!! N1[12] N2K[0] N2[16] N3K[19] N3[0] N4[21] N4Ü[0] N5[26] N6K[5] N6[0]
!!!n7k: 0] N7[0] O1[0] O2K[0] O2[0] O3K[0] O3[0] HÖ[0
